X:81
T:If There Weren't Any Women In the World
B:Terry "Cuz" Teahan "Sliabh Luachra on Parade" 1980
Z:Patrick Cavanagh
M:4/4
L:1/8
R:Barndance
K:D
f>g | a>ba>f d>ef>d | B2c>B A2d>e | f>gg>c' b>af>d | e3e e2 f>g | 
a>ba>f d>ef>d | B2c>B A2d>e | f>aa>f e2f>e | d6 :| 
| f>a | b3b b>af>a | b2a>f a2f>a | b2a>f b>af>d | e6 f>g | 
a>ba>f d>ef>d | B2c>B A2d>e | f>aa>f e2f>e | d6 :| 

